packages/icons/48x48/data.svg

<?xml version="1.0" encoding="UTF-8"?>
<svg width="48" height="48" viewBox="0 0 48 48" fill="#000000" class="customer-ui__icon"
    xmlns="http://www.w3.org/2000/svg" xmlns:xlink="http://www.w3.org/1999/xlink">
    <path fill-rule="evenodd" clip-rule="evenodd"
        d="M36.9 35.3999C37.1 35.5999 37.3 35.6999 37.6 35.6999C37.9 35.6999 38.0999 35.5999 38.2999 35.3999C42 31.5999 44 26.5999 44 21.2999C44 15.9999 42 10.9999 38 7.1999C37.5999 6.7999 37 6.7999 36.6 7.1999C36.2 7.5999 36.2 8.1999 36.6 8.5999C39.9 11.9999 41.7 16.5999 41.7 21.2999C41.7 25.7999 40.2 29.9999 37.2999 33.2999L35.4 31.3999C37.7 28.5999 39 25.0999 39 21.3999C39 17.3999 37.4 13.5999 34.7 10.6999C34.5 10.4999 34.2999 10.3999 34 10.3999C33.7 10.3999 33.5 10.4999 33.3 10.6999L30 13.9999C29.7 14.3999 29.6 14.9999 30 15.3999C31.6 17.0999 32.4 19.1999 32.4 21.4999C32.4 23.3999 31.8 25.2999 30.7 26.7999L27.9 23.9999C28.4 23.2999 28.6 22.4999 28.6 21.5999C28.6 18.9999 26.5 16.8999 23.9 16.8999C21.3 16.8999 19.2 18.9999 19.2 21.5999C19.2 22.3999 19.5 23.2999 19.9 23.9999L17.1 26.7999C16 25.1999 15.4 23.3999 15.4 21.4999C15.4 19.1999 16.3 17.0999 17.8 15.3999C18.2 14.9999 18.2 14.3999 17.8 13.9999L14.5 10.6999C14.3 10.4999 14.1 10.3999 13.8 10.3999C13.5 10.3999 13.3 10.4999 13.1 10.6999C10.3 13.5999 8.79995 17.3999 8.79995 21.3999C8.79995 25.0999 9.99995 28.5999 12.4 31.3999L10.5 33.2999C7.69995 29.8999 6.09995 25.6999 6.09995 21.2999C6.09995 16.4999 7.89995 11.9999 11.3 8.5999C11.7 8.1999 11.7 7.5999 11.3 7.1999C10.9 6.7999 10.3 6.7999 9.89995 7.1999C6.19995 10.9999 4.19995 15.9999 4.19995 21.2999C4.19995 26.5999 6.19995 31.5999 9.89995 35.3999C10.1 35.5999 10.3 35.6999 10.6 35.6999C10.8 35.6999 11.1 35.5999 11.3 35.3999L14.6 32.0999C15 31.6999 15 31.0999 14.6 30.6999C12.2 28.0999 10.9 24.7999 10.9 21.2999C10.9 18.0999 11.9 15.0999 13.9 12.6999L15.8 14.5999C14.3 16.4999 13.5 18.8999 13.5 21.2999C13.5 23.9999 14.5 26.6999 16.4 28.6999C16.6 28.8999 16.8 28.9999 17.1 28.9999C17.3 28.9999 17.6 28.8999 17.8 28.6999L22 24.4999C22.4 24.0999 22.4 23.4999 22 23.0999C21.6 22.5999 21.3 21.9999 21.3 21.2999C21.3 19.7999 22.5 18.5999 24 18.5999C25.5 18.5999 26.7 19.7999 26.7 21.2999C26.7 21.9999 26.5 22.5999 26 23.0999C25.6 23.4999 25.6 24.0999 26 24.4999L30.4 28.6999C30.6 28.8999 30.8 28.9999 31.1 28.9999C31.4 28.9999 31.6 28.8999 31.8 28.6999C33.7 26.6999 34.7 24.0999 34.7 21.2999C34.7 18.8999 33.9 16.4999 32.4 14.5999L34.3 12.6999C36.2 15.0999 37.2999 18.0999 37.2999 21.2999C37.2999 24.7999 36 28.0999 33.6 30.6999C33.2 31.0999 33.2 31.6999 33.6 32.0999L36.9 35.3999ZM23 41.9999C23 42.5999 23.4 42.9999 24 42.9999C24.5 42.9999 25 42.5999 25 41.9999V25.9999C25 25.3999 24.6 24.9999 24 24.9999C23.4 24.9999 23 25.3999 23 25.9999V41.9999Z"
        fill="inherit" />
    <mask id="mask0_252:8773" style="mask-type:alpha" maskUnits="userSpaceOnUse" x="4" y="6" width="40" height="37">
        <path fill-rule="evenodd" clip-rule="evenodd"
            d="M36.9 35.3999C37.1 35.5999 37.3 35.6999 37.6 35.6999C37.9 35.6999 38.0999 35.5999 38.2999 35.3999C42 31.5999 44 26.5999 44 21.2999C44 15.9999 42 10.9999 38 7.1999C37.5999 6.7999 37 6.7999 36.6 7.1999C36.2 7.5999 36.2 8.1999 36.6 8.5999C39.9 11.9999 41.7 16.5999 41.7 21.2999C41.7 25.7999 40.2 29.9999 37.2999 33.2999L35.4 31.3999C37.7 28.5999 39 25.0999 39 21.3999C39 17.3999 37.4 13.5999 34.7 10.6999C34.5 10.4999 34.2999 10.3999 34 10.3999C33.7 10.3999 33.5 10.4999 33.3 10.6999L30 13.9999C29.7 14.3999 29.6 14.9999 30 15.3999C31.6 17.0999 32.4 19.1999 32.4 21.4999C32.4 23.3999 31.8 25.2999 30.7 26.7999L27.9 23.9999C28.4 23.2999 28.6 22.4999 28.6 21.5999C28.6 18.9999 26.5 16.8999 23.9 16.8999C21.3 16.8999 19.2 18.9999 19.2 21.5999C19.2 22.3999 19.5 23.2999 19.9 23.9999L17.1 26.7999C16 25.1999 15.4 23.3999 15.4 21.4999C15.4 19.1999 16.3 17.0999 17.8 15.3999C18.2 14.9999 18.2 14.3999 17.8 13.9999L14.5 10.6999C14.3 10.4999 14.1 10.3999 13.8 10.3999C13.5 10.3999 13.3 10.4999 13.1 10.6999C10.3 13.5999 8.79995 17.3999 8.79995 21.3999C8.79995 25.0999 9.99995 28.5999 12.4 31.3999L10.5 33.2999C7.69995 29.8999 6.09995 25.6999 6.09995 21.2999C6.09995 16.4999 7.89995 11.9999 11.3 8.5999C11.7 8.1999 11.7 7.5999 11.3 7.1999C10.9 6.7999 10.3 6.7999 9.89995 7.1999C6.19995 10.9999 4.19995 15.9999 4.19995 21.2999C4.19995 26.5999 6.19995 31.5999 9.89995 35.3999C10.1 35.5999 10.3 35.6999 10.6 35.6999C10.8 35.6999 11.1 35.5999 11.3 35.3999L14.6 32.0999C15 31.6999 15 31.0999 14.6 30.6999C12.2 28.0999 10.9 24.7999 10.9 21.2999C10.9 18.0999 11.9 15.0999 13.9 12.6999L15.8 14.5999C14.3 16.4999 13.5 18.8999 13.5 21.2999C13.5 23.9999 14.5 26.6999 16.4 28.6999C16.6 28.8999 16.8 28.9999 17.1 28.9999C17.3 28.9999 17.6 28.8999 17.8 28.6999L22 24.4999C22.4 24.0999 22.4 23.4999 22 23.0999C21.6 22.5999 21.3 21.9999 21.3 21.2999C21.3 19.7999 22.5 18.5999 24 18.5999C25.5 18.5999 26.7 19.7999 26.7 21.2999C26.7 21.9999 26.5 22.5999 26 23.0999C25.6 23.4999 25.6 24.0999 26 24.4999L30.4 28.6999C30.6 28.8999 30.8 28.9999 31.1 28.9999C31.4 28.9999 31.6 28.8999 31.8 28.6999C33.7 26.6999 34.7 24.0999 34.7 21.2999C34.7 18.8999 33.9 16.4999 32.4 14.5999L34.3 12.6999C36.2 15.0999 37.2999 18.0999 37.2999 21.2999C37.2999 24.7999 36 28.0999 33.6 30.6999C33.2 31.0999 33.2 31.6999 33.6 32.0999L36.9 35.3999ZM23 41.9999C23 42.5999 23.4 42.9999 24 42.9999C24.5 42.9999 25 42.5999 25 41.9999V25.9999C25 25.3999 24.6 24.9999 24 24.9999C23.4 24.9999 23 25.3999 23 25.9999V41.9999Z"
            fill="white" />
    </mask>
    <g mask="url(#mask0_252:8773)">
        <rect width="48" height="48" fill="inherit" />
    </g>
</svg>

<svg width="48" height="48" class="customer-ui__icon" xmlns="http://www.w3.org/2000/svg"><path fill-rule="evenodd" clip-rule="evenodd" d="M36.9 35.4c.2.2.4.3.7.3.3 0 .5-.1.7-.3C42 31.6 44 26.6 44 21.3 44 16 42 11 38 7.2c-.4-.4-1-.4-1.4 0-.4.4-.4 1 0 1.4 3.3 3.4 5.1 8 5.1 12.7 0 4.5-1.5 8.7-4.4 12l-1.9-1.9c2.3-2.8 3.6-6.3 3.6-10 0-4-1.6-7.8-4.3-10.7-.2-.2-.4-.3-.7-.3-.3 0-.5.1-.7.3L30 14c-.3.4-.4 1 0 1.4 1.6 1.7 2.4 3.8 2.4 6.1 0 1.9-.6 3.8-1.7 5.3L27.9 24c.5-.7.7-1.5.7-2.4 0-2.6-2.1-4.7-4.7-4.7s-4.7 2.1-4.7 4.7c0 .8.3 1.7.7 2.4l-2.8 2.8c-1.1-1.6-1.7-3.4-1.7-5.3 0-2.3.9-4.4 2.4-6.1.4-.4.4-1 0-1.4l-3.3-3.3c-.2-.2-.4-.3-.7-.3-.3 0-.5.1-.7.3-2.8 2.9-4.3 6.7-4.3 10.7 0 3.7 1.2 7.2 3.6 10l-1.9 1.9c-2.8-3.4-4.4-7.6-4.4-12 0-4.8 1.8-9.3 5.2-12.7.4-.4.4-1 0-1.4-.4-.4-1-.4-1.4 0C6.2 11 4.2 16 4.2 21.3c0 5.3 2 10.3 5.7 14.1.2.2.4.3.7.3.2 0 .5-.1.7-.3l3.3-3.3c.4-.4.4-1 0-1.4-2.4-2.6-3.7-5.9-3.7-9.4 0-3.2 1-6.2 3-8.6l1.9 1.9c-1.5 1.9-2.3 4.3-2.3 6.7 0 2.7 1 5.4 2.9 7.4.2.2.4.3.7.3.2 0 .5-.1.7-.3l4.2-4.2c.4-.4.4-1 0-1.4-.4-.5-.7-1.1-.7-1.8 0-1.5 1.2-2.7 2.7-2.7 1.5 0 2.7 1.2 2.7 2.7 0 .7-.2 1.3-.7 1.8-.4.4-.4 1 0 1.4l4.4 4.2c.2.2.4.3.7.3.3 0 .5-.1.7-.3 1.9-2 2.9-4.6 2.9-7.4 0-2.4-.8-4.8-2.3-6.7l1.9-1.9c1.9 2.4 3 5.4 3 8.6 0 3.5-1.3 6.8-3.7 9.4-.4.4-.4 1 0 1.4l3.3 3.3ZM23 42c0 .6.4 1 1 1 .5 0 1-.4 1-1V26c0-.6-.4-1-1-1s-1 .4-1 1v16Z" fill="inherit"/><mask id="a" style="mask-type:alpha" maskUnits="userSpaceOnUse" x="4" y="6" width="40" height="37"><path fill-rule="evenodd" clip-rule="evenodd" d="M36.9 35.4c.2.2.4.3.7.3.3 0 .5-.1.7-.3C42 31.6 44 26.6 44 21.3 44 16 42 11 38 7.2c-.4-.4-1-.4-1.4 0-.4.4-.4 1 0 1.4 3.3 3.4 5.1 8 5.1 12.7 0 4.5-1.5 8.7-4.4 12l-1.9-1.9c2.3-2.8 3.6-6.3 3.6-10 0-4-1.6-7.8-4.3-10.7-.2-.2-.4-.3-.7-.3-.3 0-.5.1-.7.3L30 14c-.3.4-.4 1 0 1.4 1.6 1.7 2.4 3.8 2.4 6.1 0 1.9-.6 3.8-1.7 5.3L27.9 24c.5-.7.7-1.5.7-2.4 0-2.6-2.1-4.7-4.7-4.7s-4.7 2.1-4.7 4.7c0 .8.3 1.7.7 2.4l-2.8 2.8c-1.1-1.6-1.7-3.4-1.7-5.3 0-2.3.9-4.4 2.4-6.1.4-.4.4-1 0-1.4l-3.3-3.3c-.2-.2-.4-.3-.7-.3-.3 0-.5.1-.7.3-2.8 2.9-4.3 6.7-4.3 10.7 0 3.7 1.2 7.2 3.6 10l-1.9 1.9c-2.8-3.4-4.4-7.6-4.4-12 0-4.8 1.8-9.3 5.2-12.7.4-.4.4-1 0-1.4-.4-.4-1-.4-1.4 0C6.2 11 4.2 16 4.2 21.3c0 5.3 2 10.3 5.7 14.1.2.2.4.3.7.3.2 0 .5-.1.7-.3l3.3-3.3c.4-.4.4-1 0-1.4-2.4-2.6-3.7-5.9-3.7-9.4 0-3.2 1-6.2 3-8.6l1.9 1.9c-1.5 1.9-2.3 4.3-2.3 6.7 0 2.7 1 5.4 2.9 7.4.2.2.4.3.7.3.2 0 .5-.1.7-.3l4.2-4.2c.4-.4.4-1 0-1.4-.4-.5-.7-1.1-.7-1.8 0-1.5 1.2-2.7 2.7-2.7 1.5 0 2.7 1.2 2.7 2.7 0 .7-.2 1.3-.7 1.8-.4.4-.4 1 0 1.4l4.4 4.2c.2.2.4.3.7.3.3 0 .5-.1.7-.3 1.9-2 2.9-4.6 2.9-7.4 0-2.4-.8-4.8-2.3-6.7l1.9-1.9c1.9 2.4 3 5.4 3 8.6 0 3.5-1.3 6.8-3.7 9.4-.4.4-.4 1 0 1.4l3.3 3.3ZM23 42c0 .6.4 1 1 1 .5 0 1-.4 1-1V26c0-.6-.4-1-1-1s-1 .4-1 1v16Z" fill="#fff"/></mask><g mask="url(#a)"><path fill="inherit" d="M0 0h48v48H0z"/></g></svg>
